X: 142104
Q: "Hornpipe."
M: C
L: 1/8
K: A
uE2 |\
e>ag>f e>dc>B | A>ce>c f>dB>G |\
e>ag>f e>dc>B | A2a2A2 |]
e2 |\
c>eA>e c>eA>e | d>fB>f d>fB>f |\
c>eA>e c>eA>e | B>AG>F E2e2 |\
c>eA>e c>eA>e | d>fB>f d>fB>f |\
e>ag>f e>dc>B | A2a2A2 H|]


